X: 1
T:The Bugle Horn pg A49 and A54
M:2/4
L:1/8
S:Armitt MS
N:The only difference between the two versions is in the third bar from
N:the end, where A49 has D B D rather than D A
K:D major
a|affd|d2AA|ddee|f/2e/2f/2g/2 fa|affd|d2Ad|eeef|d3:||:f|d2Af|d2Af|dfdf|d
2Aa|affd|d2Ad|eeef|d3||
